X:1
T:Psalm 20
T:V 9
L:1/4
M:20/4
I:linebreak $
K:C
V:1 treble nm="Pipe Organ" snm="Org."
V:1
 A2 A G A2 c2 B B A2 |$[M:20/4] F2 A G F2 E2 D2 |$[M:20/4] D2 A A G2 A2 c B A2 |$ %3
w: Ver- los die ko- ning, trou- e HEER,|en sterk hom in die stryd!|Ver- hoor ons as ons tot U roep|
[M:20/4] F2 G A F2 E2 D2 |] %4
w: in druk en oor- logs- tyd!|

